X:41
T:The Immaculate Deception
R:reel
C: 1979, 2010 L.E. McCullough  
M:4/4 
L:1/8
K:Dmix
|:~A3G FDAB|c~A3 B~G3|~A3e fedc|AGFD ~G3G|
~A3G F~D3|c~A3 B~G3|agfd cAGB|1 ABAF ~D3G:|2 ABAF ~D2AB|]
|:cdef g~e3|geag fdBd|cdef gbag|fggf d2 AB|
cdef g~e3|~a3g fedf|~e3d gfed|1 efed ~A3B:|2 efed ~A3G|]

